assets/Small blue diamond/Flat/small_blue_diamond_flat.svg

<svg width="32" height="32" viewBox="0 0 32 32" fill="none" xmlns="http://www.w3.org/2000/svg">
<path d="M9.70708 16.7071C9.31655 16.3166 9.31655 15.6834 9.70708 15.2929L15.3639 9.63603C15.7545 9.24551 16.3876 9.24551 16.7781 9.63603L22.435 15.2929C22.8255 15.6834 22.8255 16.3166 22.435 16.7071L16.7781 22.364C16.3876 22.7545 15.7545 22.7545 15.3639 22.364L9.70708 16.7071Z" fill="#0074BA"/>
</svg>

<svg xmlns="http://www.w3.org/2000/svg" width="32" height="32" fill="none"><path fill="#0074BA" d="M9.707 16.707a1 1 0 0 1 0-1.414l5.657-5.657a1 1 0 0 1 1.414 0l5.657 5.657a1 1 0 0 1 0 1.414l-5.657 5.657a1 1 0 0 1-1.414 0l-5.657-5.657Z"/></svg>
